svg/business/refund_dollar_line.svg

<?xml version="1.0" encoding="UTF-8"?>
<svg width="24px" height="24px" viewBox="0 0 24 24" version="1.1" xmlns="http://www.w3.org/2000/svg" xmlns:xlink="http://www.w3.org/1999/xlink">
    <title>refund_dollar_line</title>
    <g id="Icon" stroke="none" stroke-width="1" fill="none" fill-rule="evenodd">
        <g id="Business" transform="translate(-576.000000, -480.000000)" fill-rule="nonzero">
            <g id="refund_dollar_line" transform="translate(576.000000, 480.000000)">
                <path d="M24,0 L24,24 L0,24 L0,0 L24,0 Z M12.5935,23.2578 L12.5819,23.2595 L12.5109,23.295 L12.4919,23.2987 L12.4767,23.295 L12.4057,23.2595 C12.3958,23.2564 12.387,23.259 12.3821,23.2649 L12.378,23.2758 L12.3609,23.7031 L12.3659,23.7235 L12.3769,23.7357 L12.4805,23.8097 L12.4953,23.8136 L12.5071,23.8097 L12.6107,23.7357 L12.6233,23.7197 L12.6267,23.7031 L12.6096,23.2758 C12.6076,23.2657 12.601,23.2593 12.5935,23.2578 Z M12.8584,23.1453 L12.8445,23.1473 L12.6598,23.2397 L12.6499,23.2499 L12.6472,23.2611 L12.6651,23.6906 L12.6699,23.7034 L12.6784,23.7105 L12.8793,23.8032 C12.8914,23.8069 12.9022,23.803 12.9078,23.7952 L12.9118,23.7812 L12.8777,23.1665 C12.8753,23.1546 12.8674,23.147 12.8584,23.1453 Z M12.143,23.1473 C12.1332,23.1424 12.1222,23.1453 12.1156,23.1526 L12.1099,23.1665 L12.0758,23.7812 C12.0751,23.7927 12.0828,23.8019 12.0926,23.8046 L12.1083,23.8032 L12.3092,23.7105 L12.3186,23.7024 L12.3225,23.6906 L12.3404,23.2611 L12.3372,23.2485 L12.3278,23.2397 L12.143,23.1473 Z" id="MingCute"></path>
                <path d="M21.6591,9.41173 C23.0885,14.7464 19.9227,20.2298 14.588,21.6592 C9.98985,22.8912 5.28357,20.7097 3.15482,16.6696 C2.89737,16.181 3.08477,15.5762 3.57338,15.3187 C4.06199,15.0613 4.66679,15.2487 4.92423,15.7373 C6.6271,18.9692 10.394,20.7124 14.0704,19.7273 C18.3381,18.5838 20.8707,14.1971 19.7272,9.92937 C18.5837,5.66164 14.197,3.12898 9.92925,4.27251 C7.30258,4.97633 5.33173,6.90921 4.47229,9.28862 L5.52982,9.05259 C6.71624,8.7878 7.39219,10.3592 6.38409,11.0384 L3.71054,12.8398 C2.99327,13.3231 1.99123,12.8241 1.99777525,11.9216 C2.00102,11.4859 2.03286,11.054 2.09196,10.6283 C2.62777,6.76909 5.40778,3.41348 9.41161,2.34066 C14.7463,0.911242 20.2296,4.07707 21.6591,9.41173 Z M11.9999,6 C12.5522,6 12.9999,6.44772 12.9999,7 L12.9999,8 L14.9999,8 C15.5522,8 15.9999,8.44772 15.9999,9 C15.9999,9.55229 15.5522,10 14.9999,10 L9.9999,10 C9.72376,10 9.4999,10.2239 9.4999,10.5 C9.4999,10.7761 9.72376,11 9.9999,11 L13.9999,11 C15.3806,11 16.4999,12.1193 16.4999,13.5 C16.4999,14.8807 15.3806,16 13.9999,16 L12.9999,16 L12.9999,17 C12.9999,17.5523 12.5522,18 11.9999,18 C11.4476,18 10.9999,17.5523 10.9999,17 L10.9999,16 L8.9999,16 C8.44761,16 7.9999,15.5523 7.9999,15 C7.9999,14.4477 8.44761,14 8.9999,14 L13.9999,14 C14.276,14 14.4999,13.7761 14.4999,13.5 C14.4999,13.2239 14.276,13 13.9999,13 L9.9999,13 C8.61919,13 7.4999,11.8807 7.4999,10.5 C7.4999,9.11929 8.61919,8 9.9999,8 L10.9999,8 L10.9999,7 C10.9999,6.44772 11.4476,6 11.9999,6 Z" id="形状" fill="#09244B"></path>
            </g>
        </g>
    </g>
</svg>

<svg xmlns="http://www.w3.org/2000/svg" width="24" height="24"><g fill="none" fill-rule="nonzero"><path d="M24 0v24H0V0zM12.594 23.258l-.012.002-.071.035-.02.004-.014-.004-.071-.036c-.01-.003-.019 0-.024.006l-.004.01-.017.428.005.02.01.013.104.074.015.004.012-.004.104-.074.012-.016.004-.017-.017-.427c-.002-.01-.009-.017-.016-.018m.264-.113-.014.002-.184.093-.01.01-.003.011.018.43.005.012.008.008.201.092c.012.004.023 0 .029-.008l.004-.014-.034-.614c-.003-.012-.01-.02-.02-.022m-.715.002a.023.023 0 0 0-.027.006l-.006.014-.034.614c0 .012.007.02.017.024l.015-.002.201-.093.01-.008.003-.011.018-.43-.003-.012-.01-.01z"/><path fill="#09244B" d="M21.66 9.412c1.428 5.334-1.737 10.818-7.072 12.247-4.598 1.232-9.304-.95-11.433-4.99a1 1 0 0 1 1.77-.932 8 8 0 1 0-.452-6.449l1.057-.235c1.186-.265 1.862 1.306.854 1.985L3.711 12.84c-.718.483-1.72-.016-1.713-.918a10.003 10.003 0 0 1 7.414-9.58C14.746.91 20.23 4.076 21.659 9.41M12 6a1 1 0 0 1 1 1v1h2a1 1 0 1 1 0 2h-5a.5.5 0 0 0 0 1h4a2.5 2.5 0 0 1 0 5h-1v1a1 1 0 1 1-2 0v-1H9a1 1 0 1 1 0-2h5a.5.5 0 0 0 0-1h-4a2.5 2.5 0 0 1 0-5h1V7a1 1 0 0 1 1-1"/></g></svg>
